svgs/sharp-light/gun-squirt.svg

<svg xmlns="http://www.w3.org/2000/svg" viewBox="0 0 576 512"><!--! Font Awesome Pro 6.6.0 by @fontawesome - https://fontawesome.com License - https://fontawesome.com/license (Commercial License) Copyright 2024 Fonticons, Inc. --><path d="M128 48l0-16L96 32l0 16 0 16C43 64 0 107 0 160c0 50.4 38.8 91.7 88.1 95.7L40 448l-8 32 33 0 127 0 32-128 64 0 0 16 0 16 32 0 0-16 0-32 0-32 0-16-32 0 0 16 0 16-56 0 16-64 264 0 16 0 0-16 0-32 32 0 16 0 0-16 0-64 0-16-16 0-32 0 0-32 0-16-16 0L128 64l0-16zM96 96l32 0 368 0 0 32 0 16 16 0 32 0 0 32-32 0-16 0 0 16 0 32L96 224c-35.3 0-64-28.7-64-64s28.7-64 64-64zm0 48l-16 0 0 32 16 0 352 0 16 0 0-32-16 0L96 144zM215 256L167 448l-94 0 48-192 94 0z"/></svg>

<svg xmlns="http://www.w3.org/2000/svg" viewBox="0 0 576 512"><!--! Font Awesome Pro 6.4.2 by @fontawesome - https://fontawesome.com License - https://fontawesome.com/license (Commercial License) Copyright 2023 Fonticons, Inc. --><path d="M128 48V32H96V48l0 16C43 64 0 107 0 160c0 50.4 38.8 91.7 88.1 95.7L40 448l-8 32H65 192l32-128h64v16 16h32V368 336 304 288H288v16 16H232l16-64 264 0h16V240 208h32 16V192 128 112H560 528V80 64H512 128V48zM96 96h32H496v32 16h16 32v32H512 496v16 32H96c-35.3 0-64-28.7-64-64s28.7-64 64-64zm0 48H80v32H96 448h16V144H448 96zM215 256L167 448H73l48-192h94z"/></svg>
